X: 1
T: Forde's Polka
C: trad
O: Ireland
%D:
R: polka
S: Fiddle Hell Online 2022-4-10 handout for Becky Tracy's workshop
Z: 2022 John Chambers <jc:trillian.mit.edu>
M: C|
L: 1/8
K: D
"^A"|: (F/G/ | "D"A)(D FA) | (dc) (GB) |1,3 "C"=c>B cG | "*A7"(ED) G :|2,4 "C"=c>B cE | (ED) D :|
"^B"|: z/(e/ |: "D"fd) (ed) | "A7"(cA) [1,3 A>(e | "D"fd) (ef) | "A7"(ag) e>(g :|[2,4 (AB) |"C"=c>B cE | "D"(ED) D :|
